assets/Right-facing fist/Medium-Light/Flat/right-facing_fist_flat_medium-light.svg

<svg width="32" height="32" viewBox="0 0 32 32" fill="none" xmlns="http://www.w3.org/2000/svg">
<rect width="9.6875" height="6.8125" transform="matrix(-1 0 0 1 25 16)" fill="#D6A089"/>
<path d="M30 12.63V20.37C30 23.48 27.48 25.99 24.38 25.99H21.83C22.2 27.05 21.97 28.27 21.12 29.11C19.95 30.28 18.05 30.28 16.88 29.11L14.4 26.63C13.99 26.22 13.43 25.99 12.85 25.99C9.45001 25.99 6.62 23.51 6.09 20.25C6.07 20.1 5.94 19.99 5.78 19.99H3.96875C2.84375 19.99 2 19.5625 2 18.0625V10.9062C2 9 2.94 8 4.9375 8H25.37C27.93 8 30 10.07 30 12.63ZM18.4062 21.9219C18.9663 20.7219 19.5625 20.0938 20.51 19.8125C21.4575 19.5312 22.5569 19.5469 23.3281 19.3906C24.0994 19.2344 23.99 17.99 23.99 17.99C23.99 17.45 23.55 17.01 23.01 17.01H16.82C16.35 17.01 15.99 17.42 16.05 17.89C16.21 19.01 17.7262 21.0119 18.4062 21.9219Z" fill="#EEBFAA"/>
<path fill-rule="evenodd" clip-rule="evenodd" d="M23.9688 18C23.9688 17.1214 24.672 15.7664 25.5952 14.7854C25.7552 14.6154 25.639 14.3234 25.407 14.3495C23.4366 14.5717 22.4139 15.7748 21.6406 17.4688L23.9688 18ZM19.8906 23.5313C21.0955 24.4581 21.5826 25.026 21.8502 25.99H24.38C26.9023 25.99 29.0406 24.3284 29.75 22.0339V21.6875C28.8958 22.5208 26.5 24.1875 23.75 24.1875C21.1233 24.1875 19.1619 22.7668 18.4103 21.9132L18.4062 21.9219L18.3483 21.8444L18.3167 21.8022L18.3125 21.7969C18.3125 21.7969 18.7252 22.6348 19.8906 23.5313Z" fill="#D6A089"/>
</svg>

<svg xmlns="http://www.w3.org/2000/svg" width="32" height="32" fill="none"><path fill="#D6A089" d="M25 16h-9.688v6.813H25z"/><path fill="#EEBFAA" d="M30 12.63v7.74c0 3.11-2.52 5.62-5.62 5.62h-2.55c.37 1.06.14 2.28-.71 3.12a3 3 0 0 1-4.24 0l-2.48-2.48c-.41-.41-.97-.64-1.55-.64a6.85 6.85 0 0 1-6.76-5.74.305.305 0 0 0-.31-.26H3.969C2.844 19.99 2 19.563 2 18.063v-7.157C2 9 2.94 8 4.938 8H25.37C27.93 8 30 10.07 30 12.63Zm-11.594 9.292c.56-1.2 1.157-1.828 2.104-2.11.947-.28 2.047-.265 2.818-.421.771-.157.662-1.401.662-1.401 0-.54-.44-.98-.98-.98h-6.19c-.47 0-.83.41-.77.88.16 1.12 1.676 3.122 2.356 4.032Z"/><path fill="#D6A089" fill-rule="evenodd" d="M23.969 18c0-.879.703-2.234 1.626-3.215.16-.17.044-.462-.188-.435-1.97.222-2.993 1.425-3.766 3.119l2.328.531Zm-4.078 5.531c1.205.927 1.692 1.495 1.96 2.459h2.529a5.621 5.621 0 0 0 5.37-3.956v-.346c-.854.833-3.25 2.5-6 2.5-2.627 0-4.588-1.421-5.34-2.275l-.004.009-.058-.078-.031-.042-.005-.005s.413.838 1.579 1.734Z" clip-rule="evenodd"/></svg>
